X:12
T:The Glasgow Gaelic Club
R:jig
O:20th century Scottish pipe 
B:The Glen Allan Colllection (1952)
H:adapted from a 6/8 march
D:Cape Breton Fiddle and Piano Music, The Beaton Family of Mabou
Z:Paul Stewart Cranford (P.S.C.), <http://www.cranfordpub.com>
L:1/8
M:6/8
Q:300
K:Baeo
c|dcB BAF|B3 Bcd|cBA e2 A|e2 a cBA|
dcB BAF|B3 d2 e|faf edc|dBB B2:|
|:c|dfa dfa|dfa fed|ceA dfA|cea cBA|
dcB BAF|B3 d2 e|faf edc|dBB B2:|
